assets/bank-tab/Asset/Health & OPD.svg

<svg width="24" height="24" viewBox="0 0 24 24" fill="none" xmlns="http://www.w3.org/2000/svg">
<g clip-path="url(#clip0_5371_1165)">
<path fill-rule="evenodd" clip-rule="evenodd" d="M14.3036 21.739C18.4621 18.3883 23.921 12.9091 23.9791 7.80055C23.993 7.6263 24.0001 7.45002 24.0001 7.27201C24.0001 3.80808 21.3176 1 18.0087 1C14.9685 1 12.4572 3.37051 12.0693 6.44222C12.0658 6.46972 12.0416 6.49006 12.0139 6.48824C11.9889 6.4866 11.9686 6.46718 11.9654 6.44228C11.5776 3.37054 9.06628 1 6.02604 1C2.71716 1 0.0347745 3.80798 0.034679 7.27183C-0.272058 9.51981 1.34359 14.9939 9.7283 21.7299C10.7893 22.5823 11.3199 23.0085 12.0246 23.008C12.7292 23.0075 13.254 22.5847 14.3036 21.739ZM14.6111 9.74796C14.7584 9.30609 15.3767 9.28792 15.5496 9.72038L16.2843 11.5571C16.5121 12.1266 17.0637 12.5 17.677 12.5H20C20.2762 12.5 20.5 12.2761 20.5 12C20.5 11.7239 20.2762 11.5 20 11.5H17.677C17.4726 11.5 17.2887 11.3755 17.2128 11.1857L16.4781 9.34899C15.9592 8.0516 14.1043 8.1061 13.6624 9.43174L12.4189 13.1622C12.2699 13.6092 11.6418 13.6209 11.4764 13.1797L10.2734 9.97164C9.81349 8.74529 8.11298 8.65603 7.52724 9.8275L6.82919 11.2236C6.74449 11.393 6.57136 11.5 6.38198 11.5H4.00001C3.72387 11.5 3.50001 11.7239 3.50001 12C3.50001 12.2761 3.72387 12.5 4.00001 12.5H6.38198C6.95014 12.5 7.46953 12.179 7.72362 11.6708L8.42167 10.2747C8.61691 9.88423 9.18375 9.91398 9.33705 10.3228L10.5401 13.5308C11.0364 14.8544 12.9206 14.8195 13.3676 13.4784L14.6111 9.74796Z" fill="#622970"/>
</g>
<defs>
<clipPath id="clip0_5371_1165">
<rect width="24" height="24" fill="white"/>
</clipPath>
</defs>
</svg>

<svg xmlns="http://www.w3.org/2000/svg" width="24" height="24" fill="none" viewBox="0 0 24 24"><g clip-path="url(#a)"><path fill="#622970" fill-rule="evenodd" d="M14.304 21.739c4.158-3.35 9.617-8.83 9.675-13.938Q24 7.539 24 7.272C24 3.808 21.318 1 18.01 1c-3.04 0-5.552 2.37-5.94 5.442a.053.053 0 0 1-.055.046.05.05 0 0 1-.049-.046C11.578 3.371 9.066 1 6.026 1 2.717 1 .035 3.808.035 7.272-.272 9.52 1.344 14.994 9.728 21.73c1.061.852 1.592 1.279 2.297 1.278.704 0 1.229-.423 2.279-1.269m.307-11.991a.5.5 0 0 1 .939-.028l.734 1.837a1.5 1.5 0 0 0 1.393.943H20a.5.5 0 1 0 0-1h-2.323a.5.5 0 0 1-.464-.314l-.735-1.837c-.519-1.297-2.374-1.243-2.816.083l-1.243 3.73a.5.5 0 0 1-.943.018l-1.203-3.208c-.46-1.227-2.16-1.316-2.746-.144l-.698 1.396a.5.5 0 0 1-.447.276H4a.5.5 0 0 0 0 1h2.382a1.5 1.5 0 0 0 1.342-.83l.698-1.395a.5.5 0 0 1 .915.048l1.203 3.208c.496 1.323 2.38 1.288 2.828-.053z" clip-rule="evenodd"/></g><defs><clipPath id="a"><path fill="#fff" d="M0 0h24v24H0z"/></clipPath></defs></svg>
